configs/network-icons/degen.svg

<svg width="30" height="30" viewBox="0 0 30 30" fill="none" xmlns="http://www.w3.org/2000/svg">
<g clip-path="url(#clip0_11604_49896)">
<path fill-rule="evenodd" clip-rule="evenodd" d="M24.2028 2.38463C21.9723 2.12821 20.4849 2 14.9991 2C10.2926 2 7.99872 2.17065 5.79543 2.38463C4.76548 2.48454 3.94397 3.26882 4.01961 4.30598L4.84122 15.5071C5.09856 15.5817 5.37922 15.6759 5.69396 15.7817C7.34203 16.3352 9.92554 17.2029 14.9991 17.2029C20.0726 17.2029 22.6562 16.3352 24.3042 15.7817C24.6187 15.676 24.899 15.5819 25.1562 15.5073L25.9778 4.30598C26.0543 3.26882 25.2302 2.50311 24.202 2.38463H24.2028ZM5.23491 20.8745L5.23491 20.8744C5.25435 20.8917 5.27421 20.9092 5.29449 20.9269L5.29446 20.9269C6.59023 22.055 9.57504 23.8892 14.9982 23.8892C21.7075 23.8892 24.6487 21.1181 25.3374 20.2922C25.4412 20.1676 25.501 20.0129 25.5107 19.8502L25.6307 17.6641C26.4294 17.2254 27.254 16.7298 27.254 16.7298C28.5505 16.0269 29.9974 17.0366 30 18.5177C30.0044 20.9139 28.1336 23.3763 25.6101 24.9281C22.7647 26.6779 18.5174 27.4038 15 27.4038C11.4826 27.4038 7.23527 26.6779 4.3899 24.9281C1.86643 23.3763 -0.00439002 20.9147 7.73717e-06 18.5177C0.00264642 17.0366 1.44952 16.0269 2.74599 16.7298C2.74599 16.7298 3.56916 17.2242 4.36726 17.6625L4.48832 19.8696C4.49623 20.0199 4.55254 20.1614 4.64754 20.2772C4.76645 20.4213 4.95952 20.6296 5.23491 20.8745Z" fill="#8B5CF6"/>
</g>
<defs>
<clipPath id="clip0_11604_49896">
<rect width="30" height="30" fill="white"/>
</clipPath>
</defs>
</svg>

<svg xmlns="http://www.w3.org/2000/svg" fill="none" viewBox="0 0 30 30">
  <g clip-path="url(#degen_svg__a)">
    <path fill="#8B5CF6" fill-rule="evenodd" d="M24.203 2.385C21.973 2.128 20.485 2 14.999 2c-4.706 0-7 .17-9.204.385-1.03.1-1.851.884-1.775 1.921l.821 11.201c.258.075.538.169.853.275 1.648.553 4.232 1.42 9.305 1.42 5.074 0 7.657-.867 9.305-1.42.315-.106.595-.2.852-.275l.822-11.201c.076-1.037-.748-1.803-1.776-1.921ZM5.235 20.875l.06.052c1.295 1.128 4.28 2.962 9.703 2.962 6.71 0 9.65-2.77 10.34-3.597a.76.76 0 0 0 .173-.442l.12-2.186a57.795 57.795 0 0 0 1.623-.934c1.296-.703 2.743.307 2.746 1.788.004 2.396-1.866 4.858-4.39 6.41-2.845 1.75-7.093 2.476-10.61 2.476-3.517 0-7.765-.726-10.61-2.476-2.524-1.552-4.394-4.013-4.39-6.41.003-1.481 1.45-2.491 2.746-1.788 0 0 .823.494 1.621.933l.121 2.207a.7.7 0 0 0 .16.407c.118.144.312.353.587.598Z" clip-rule="evenodd"/>
  </g>
  <defs>
    <clipPath id="degen_svg__a">
      <path fill="#fff" d="M0 0h30v30H0z"/>
    </clipPath>
  </defs>
</svg>
